build/svg/cmd/sc_symbolshapes.sun.svg

<?xml version="1.0" encoding="UTF-8" standalone="no"?>
<svg
   xmlns:dc="http://purl.org/dc/elements/1.1/"
   xmlns:cc="http://creativecommons.org/ns#"
   xmlns:rdf="http://www.w3.org/1999/02/22-rdf-syntax-ns#"
   xmlns:svg="http://www.w3.org/2000/svg"
   xmlns="http://www.w3.org/2000/svg"
   xmlns:sodipodi="http://sodipodi.sourceforge.net/DTD/sodipodi-0.dtd"
   xmlns:inkscape="http://www.inkscape.org/namespaces/inkscape"
   viewBox="0 0 16 16"
   version="1.1"
   id="svg4"
   sodipodi:docname="sc_symbolshapes.sun.svg"
   inkscape:export-filename="/home/jupiter007/Libreoffice yaru theme fullcolor/build/cmd/sc_symbolshapes.sun.png"
   inkscape:export-xdpi="96"
   inkscape:export-ydpi="96"
   inkscape:version="0.92.4 (5da689c313, 2019-01-14)"><metadata
   id="metadata10">
  <rdf:RDF>
    <cc:Work
       rdf:about="">
      <dc:format>image/svg+xml</dc:format>
      <dc:type
         rdf:resource="http://purl.org/dc/dcmitype/StillImage" />
    </cc:Work>
  </rdf:RDF>
</metadata>
<defs
   id="defs8" />
<sodipodi:namedview
   pagecolor="#ffffff"
   bordercolor="#666666"
   borderopacity="1"
   objecttolerance="10"
   gridtolerance="10"
   guidetolerance="10"
   inkscape:pageopacity="0"
   inkscape:pageshadow="2"
   inkscape:window-width="1920"
   inkscape:window-height="1011"
   id="namedview6"
   showgrid="false"
   inkscape:zoom="14.75"
   inkscape:cx="0.44067797"
   inkscape:cy="8"
   inkscape:window-x="0"
   inkscape:window-y="32"
   inkscape:window-maximized="1"
   inkscape:current-layer="svg4" />
/&gt;<path
   style="fill:#1a1a1a;stroke:#1a1a1a;opacity:0.6;stroke-width:2;stroke-miterlimit:4;stroke-dasharray:none;stroke-linejoin:round"
   id="path817"
   fill="#232629"
   d="m8 2-1.09375 2.1875c.3489585-.0994219.7128944-.1875 1.09375-.1875s.7447915.0880781 1.09375.1875zm-4.25 1.75.78125 2.3125c.3627726-.6514119.8798381-1.1684774 1.53125-1.53125zm8.5 0-2.3125.78125c.651412.3627726 1.168477.8798381 1.53125 1.53125zm-4.25 1.25c-1.6568542 0-3 1.3431458-3 3s1.3431458 3 3 3 3-1.3431458 3-3-1.3431458-3-3-3zm-3.8125 1.90625-2.1875 1.09375 2.1875 1.09375c-.0994219-.3489585-.1875-.7128944-.1875-1.09375s.0880781-.7447915.1875-1.09375zm7.625 0c.099422.3489585.1875.7128944.1875 1.09375s-.088078.7447915-.1875 1.09375l2.1875-1.09375zm-7.28125 3.03125-.78125 2.3125 2.3125-.78125c-.6514119-.362773-1.1684774-.879838-1.53125-1.53125zm6.9375 0c-.362773.651412-.879838 1.168477-1.53125 1.53125l2.3125.78125zm-4.5625 1.875 1.09375 2.1875 1.09375-2.1875c-.3489585.099422-.7128944.1875-1.09375.1875s-.7447915-.088078-1.09375-.1875z" />
<path
   d="m8 2-1.09375 2.1875c.3489585-.0994219.7128944-.1875 1.09375-.1875s.7447915.0880781 1.09375.1875zm-4.25 1.75.78125 2.3125c.3627726-.6514119.8798381-1.1684774 1.53125-1.53125zm8.5 0-2.3125.78125c.651412.3627726 1.168477.8798381 1.53125 1.53125zm-4.25 1.25c-1.6568542 0-3 1.3431458-3 3s1.3431458 3 3 3 3-1.3431458 3-3-1.3431458-3-3-3zm-3.8125 1.90625-2.1875 1.09375 2.1875 1.09375c-.0994219-.3489585-.1875-.7128944-.1875-1.09375s.0880781-.7447915.1875-1.09375zm7.625 0c.099422.3489585.1875.7128944.1875 1.09375s-.088078.7447915-.1875 1.09375l2.1875-1.09375zm-7.28125 3.03125-.78125 2.3125 2.3125-.78125c-.6514119-.362773-1.1684774-.879838-1.53125-1.53125zm6.9375 0c-.362773.651412-.879838 1.168477-1.53125 1.53125l2.3125.78125zm-4.5625 1.875 1.09375 2.1875 1.09375-2.1875c-.3489585.099422-.7128944.1875-1.09375.1875s-.7447915-.088078-1.09375-.1875z"
   fill="#232629"
   id="path2"
   style="fill:#ffffff" />
</svg>

<svg xmlns="http://www.w3.org/2000/svg" viewBox="0 0 16 16">/&gt;<path fill="#1a1a1a" d="M8 2L6.906 4.188C7.256 4.088 7.62 4 8 4s.745.088 1.094.188zM3.75 3.75l.781 2.313A3.906 3.906 0 016.063 4.53zm8.5 0l-2.313.781c.652.363 1.169.88 1.532 1.532zM8 5a3 3 0 100 6 3 3 0 000-6zM4.187 6.906L2 8l2.188 1.094C4.088 8.744 4 8.38 4 8s.088-.745.188-1.094zm7.625 0c.1.35.188.713.188 1.094s-.088.745-.188 1.094L14 8zm-7.28 3.032L3.75 12.25l2.313-.781A3.906 3.906 0 014.53 9.938zm6.937 0a3.906 3.906 0 01-1.531 1.53l2.312.782zm-4.563 1.874L8 14l1.094-2.188c-.35.1-.713.188-1.094.188s-.745-.088-1.094-.188z" stroke="#1a1a1a" opacity=".6" stroke-width="2" stroke-linejoin="round"/><path d="M8 2L6.906 4.188C7.256 4.088 7.62 4 8 4s.745.088 1.094.188zM3.75 3.75l.781 2.313A3.906 3.906 0 016.063 4.53zm8.5 0l-2.313.781c.652.363 1.169.88 1.532 1.532zM8 5a3 3 0 100 6 3 3 0 000-6zM4.187 6.906L2 8l2.188 1.094C4.088 8.744 4 8.38 4 8s.088-.745.188-1.094zm7.625 0c.1.35.188.713.188 1.094s-.088.745-.188 1.094L14 8zm-7.28 3.032L3.75 12.25l2.313-.781A3.906 3.906 0 014.53 9.938zm6.937 0a3.906 3.906 0 01-1.531 1.53l2.312.782zm-4.563 1.874L8 14l1.094-2.188c-.35.1-.713.188-1.094.188s-.745-.088-1.094-.188z" fill="#fff"/></svg>
